X: 9327
T: Dancin' With My Sweetie
R: barndance
M: 4/4
K: Dmajor
F>DA,>D F2 F2|E>^DE>G B,2 B,2|C>=C^C>B, A,>CE>C|
[1 D>CD<F A2 (3A^G=G|F>DA,>D F2 F2|E>^DE>G B,>E^D>=D|C>=C^C>B, A,2 (3GFE|D2:|
[2 D>CD<F A>a^g>=g|f>dA>d f>Aa>f|g>ec>e b2 ^a>b|(3aba c'>b (3aba (3gfe|d2||

